src/actions/24/gtk-select-font.svg

<svg xmlns="http://www.w3.org/2000/svg" viewBox="0 0 24 24">
  <defs id="defs3051">
    <style type="text/css" id="current-color-scheme">
      .ColorScheme-Text {
        color:#2e3440;
      }
      </style>
  </defs>
  <path style="fill:currentColor;fill-opacity:1;stroke:none" 
     d="M 10.910156 5 L 7.5957031 14.59375 L 7.4726562 15 L 6 19 L 7.6582031 19 L 9.2832031 14.5625 L 14.716797 14.5625 L 16.341797 19 L 18 19 L 16.527344 15 L 16.404297 14.59375 L 13.089844 5 L 12.875 5 L 11.125 5 L 10.910156 5 z M 12.015625 6.9375 L 14.195312 13.28125 L 9.8046875 13.28125 L 12.015625 6.9375 z "
     class="ColorScheme-Text"
     />
  <path
     style="fill:currentColor;fill-opacity:1;stroke:none" 
     d="M 19 4 C 18.44771 4 18 4.4477 18 5 C 18 5.5523 18.44771 6 19 6 C 19.55228 6 20 5.5523 20 5 C 20 4.4477 19.55228 4 19 4 z M 19 8 C 18.44771 8 18 8.4477 18 9 C 18 9.5523 18.44771 10 19 10 C 19.55228 10 20 9.5523 20 9 C 20 8.4477 19.55228 8 19 8 z M 19 12 C 18.44771 12 18 12.4477 18 13 C 18 13.5523 18.44771 14 19 14 C 19.55228 14 20 13.5523 20 13 C 20 12.4477 19.55228 12 19 12 z "
     class="ColorScheme-Text"
     />
</svg>

<svg viewBox="0 0 24 24" xmlns="http://www.w3.org/2000/svg">
 <defs>
  <style type="text/css">.ColorScheme-Text {
        color:#2e3440;
      }</style>
 </defs>
 <path class="ColorScheme-Text" d="m10.91 5-3.3145 9.5938-0.12305 0.40625-1.4727 4h1.6582l1.625-4.4375h5.4336l1.625 4.4375h1.6582l-1.4727-4-0.12305-0.40625-3.3145-9.5938h-0.21484-1.75-0.21484zm1.1055 1.9375 2.1797 6.3438h-4.3906l2.2109-6.3438z" fill="currentColor"/>
 <path class="ColorScheme-Text" d="m19 4c-0.55229 0-1 0.4477-1 1s0.44771 1 1 1c0.55228 0 1-0.4477 1-1s-0.44772-1-1-1zm0 4c-0.55229 0-1 0.4477-1 1s0.44771 1 1 1c0.55228 0 1-0.4477 1-1s-0.44772-1-1-1zm0 4c-0.55229 0-1 0.4477-1 1s0.44771 1 1 1c0.55228 0 1-0.4477 1-1s-0.44772-1-1-1z" fill="currentColor"/>
</svg>
